src/actions/24/exchange-positions-zorder.svg

<svg xmlns="http://www.w3.org/2000/svg" viewBox="0 0 24 24">
  <defs id="defs3051">
    <style type="text/css" id="current-color-scheme">
      .ColorScheme-Text {
        color:#363636;
      }
      .ColorScheme-Highlight {
        color:#3daee9;
      }
      </style>
  </defs>
 <path 
     style="fill:currentColor;fill-opacity:1;stroke:none" 
     d="M 4 4 L 4 11 L 12 11 L 12 4 L 4 4 z M 5 5 L 11 5 L 11 10 L 5 10 L 5 5 z M 13 5.078125 L 13 5.9980469 L 13 6.0898438 L 13 8.9980469 L 14 8.9980469 L 14 6.3554688 A 6 6 0 0 1 18 12 L 19 12 A 7 7 0 0 0 13 5.078125 z M 5 12 A 7 7 0 0 0 11 18.921875 L 11 17.910156 L 11 14.998047 L 10 14.998047 L 10 17.644531 A 6 6 0 0 1 6 12 L 5 12 z "
     class="ColorScheme-Text"
     />
 <path 
     style="fill:currentColor;fill-opacity:1;stroke:none" 
     d="M 14 13 L 13.792969 13.207031 L 12 15 L 12 16.414062 L 13.5 14.914062 L 13.5 19 L 14.5 19 L 14.5 14.914062 L 16 16.414062 L 16 15 L 14.207031 13.207031 L 14 13 z M 17.5 14 L 17.5 18.085938 L 16 16.585938 L 16 18 L 17.792969 19.792969 L 18 20 L 18.207031 19.792969 L 20 18 L 20 16.585938 L 18.5 18.085938 L 18.5 14 L 17.5 14 z "
     class="ColorScheme-Highlight"
     />
</svg>

<svg xmlns="http://www.w3.org/2000/svg" viewBox="0 0 24 24">
    <path d="M4 4v7h8V4H4zm1 1h6v5H5V5zm8 .078v3.92h1V6.355A6 6 0 0 1 18 12h1a7 7 0 0 0-6-6.922zM5 12a7 7 0 0 0 6 6.922v-3.924h-1v2.647A6 6 0 0 1 6 12H5z" style="fill:currentColor;fill-opacity:1;stroke:none;color:#050505;opacity:.7"/>
    <path d="m14 13-.207.207L12 15v1.414l1.5-1.5V19h1v-4.086l1.5 1.5V15l-1.793-1.793L14 13zm3.5 1v4.086l-1.5-1.5V18l1.793 1.793L18 20l.207-.207L20 18v-1.414l-1.5 1.5V14h-1z" style="fill:currentColor;fill-opacity:1;stroke:none;color:#a0b6cb"/>
</svg>
